-----BEGIN PGP SIGNATURE-----

iQKTBAABCgB9FiEE70tMtd+4giIWpHOxWXqxLmYmKJgFAmmxDQxfFIAAAAAALgAo
aXNzdWVyLWZwckBub3RhdGlvbnMub3BlbnBncC5maWZ0aGhvcnNlbWFuLm5ldEVG
NEI0Q0I1REZCODgyMjIxNkE0NzNCMTU5N0FCMTJFNjYyNjI4OTgACgkQWXqxLmYm
KJitoBAAxkL6SoX7pfcpVCPInuFWUOLqsKpnSupkNWzk4TAWbIzU0TK9EGPn3vJy
Wcc5e162zKgv++gneyDJalPOO5+dZYcEaQ7ODfT6maUawJ26UClyHq8ZGLATtARn
wQwSj405hchiRKf0lItuJIc/ZOuJU6/EfzBXAzNkhdEyRLLLqdw7iRlZCBBPKw+e
uQze4dkPHhKDjOJNZzzwf2vPebaKy30ZTIXqWzmeLsyhJ2AwzmT3rWK5ISy19EM1
XaTXVa5DCTAKaCOhSl5MxWVH0CQut1r9y+lPcNHsmrWSbMcfa3ef6n5ByRvxWVeB
7IQHeeC58a/WsK9kkhroIPO1kfqhDRnSiOgCLnLWEwMYBeKtuCdQPGHLoij6ryRq
720O4boOZEgcojQTOgs3IZsCaX7rBl2AytpjmeGZEoAtJAvISG8Yq92LV+93RCXn
LhmAz6cnRX2iJqzxqgKJ8hbFFIqVMDHIpzeJrlNnUI9bNzjuJOXVHlk6plSLVNI5
XkFrd9SBFwqivuKUEAb+PCFNEKgr079RWtX+9dHHd3GgELcxMy9dLTA9RTMh+c2X
SztoEd6BrJ8+aCTzXZpAQeqYgRMO+afXFE3k1BjrzS7ZQhPl5safvuRusti+2HhD
GNlTRK5R/8+PNSMcoi0cstb0AasQxhWvmHIZH9XQtBB7nwWhXpM=
=0pJx
-----END PGP SIGNATURE-----
