-----BEGIN PGP SIGNATURE-----

iQKTBAABCgB9FiEE70tMtd+4giIWpHOxWXqxLmYmKJgFAmmxN0hfFIAAAAAALgAo
aXNzdWVyLWZwckBub3RhdGlvbnMub3BlbnBncC5maWZ0aGhvcnNlbWFuLm5ldEVG
NEI0Q0I1REZCODgyMjIxNkE0NzNCMTU5N0FCMTJFNjYyNjI4OTgACgkQWXqxLmYm
KJgNdA/9HmH7h9RFrj4iSqgJXiVNyaOApa61ByCgyHAc2wkeZoEF9bySw6Ou6PXP
CyBVkhRGz/R2j7/UEebV6EO6DatLzPrmK65JWCOC0/OaYqeI1fHhB9iB/XEWwGTQ
GWoCxDj71v2ZnujZ6lM+5rHtd3RPD5C25woC3J1e+7YiQ7oJFRaL8wyDV+n0CN14
k0/1Uj+ycV1KwyvhEtP1eKcfp42My+gS8AnGZ8L9ppF7gmfOeDm5ztWXOs7TZ0I3
W63MH8aJrmiseRQ12GPygF5StjOS2dSIklqwxbmZ4qzj2KFVTgeL+g+zxH43///f
URtTvCWIAYF2IlCZNQfO1Cc7++P76sVQUb1XPM2dI5EzdU8mK7JCs0v2zo5yQIGx
pFtpZvUnKvkok+GlXkkLFjA+fzjdqdlOGhuU6P0ZsOKJ4ly0HcyUn6ZGn05sLdzU
AL7m0foHN6d/1KerjB3dAftEKZYWJSCc1EF9CmqQX4UVvVGFDWKO+7JHUutwIOum
WqDWJPEvujjqiuDvSOZMxVXd2oGZ0+XGhbGWFGLyLq1HHG3LZg4OSJibyvYchtBR
+sx/kNvg2CueYAJiYP6hN6hr3VRcTvd16+aLacB5HYMjYf1tv5QXGC3Prlr2/Edc
EEuXQgKJ+H90ZYWhB/PS2CvMSSkBabGj4NRZwU519id2TL0JTX4=
=ALv/
-----END PGP SIGNATURE-----
